packages/admin/admin-icons/icons/accept.svg

<svg xmlns="http://www.w3.org/2000/svg" width="16" height="16" viewBox="0 0 16 16"><path fill="#232323" fill-rule="evenodd" d="M8,0 C9.59267374,0 11.1171904,0.466835011 12.4164825,1.32858741 C12.6466094,1.48121849 12.7094321,1.7915051 12.556801,2.02163194 C12.4041699,2.25175878 12.0938833,2.31458151 11.8637565,2.16195043 C10.7270796,1.4080522 9.39452664,1 8,1 C4.13400675,1 1,4.13400675 1,8 C1,11.8659932 4.13400675,15 8,15 C11.8659932,15 15,11.8659932 15,8 C15,7.72385763 15.2238576,7.5 15.5,7.5 C15.7761424,7.5 16,7.72385763 16,8 C16,12.418278 12.418278,16 8,16 C3.581722,16 0,12.418278 0,8 C0,3.581722 3.581722,0 8,0 Z M15.7843055,3.08859116 L15.8535534,3.14644661 C16.0271197,3.32001296 16.0464049,3.58943736 15.9114088,3.7843055 L15.8535534,3.85355339 L8.35355339,11.3535534 C8.17998704,11.5271197 7.91056264,11.5464049 7.7156945,11.4114088 L7.64644661,11.3535534 L4.14644661,7.85355339 C3.95118446,7.65829124 3.95118446,7.34170876 4.14644661,7.14644661 C4.32001296,6.97288026 4.58943736,6.95359511 4.7843055,7.08859116 L4.85355339,7.14644661 L8,10.293 L15.1464466,3.14644661 C15.320013,2.97288026 15.5894374,2.95359511 15.7843055,3.08859116 Z"/></svg>

<svg width="16" height="16" fill="none" viewBox="0 0 16 16">
  <path fill="#242424" fill-rule="evenodd" d="M8 0a7.96 7.96 0 0 1 4.416 1.329.5.5 0 0 1-.552.833A7 7 0 1 0 15 8a.5.5 0 0 1 1 0 8 8 0 1 1-8-8Zm7.784 3.089.07.057a.5.5 0 0 1 .057.638l-.057.07-7.5 7.5a.5.5 0 0 1-.638.057l-.07-.057-3.5-3.5a.5.5 0 0 1 .638-.765l.07.057L8 10.293l7.146-7.147a.5.5 0 0 1 .638-.057Z" clip-rule="evenodd"/>
</svg>
